!!!!SEGMENT: pl-stab--st-a--002_anonim-nasz-zbawiciel.krn
!!!id: 15xx:357
!!!COM: Anonim
!!!OTL: Nasz Zbawiciel
!!!PDT: 1586
!!!SMS-siglum: PL-STAb
!!!SMS-shelfmark: St A
!!!NIFC-rismID:
!!!URL-scan: http://staniatki.studiokropka.pl/mbp/#/item/429
!!!ONB-nifc:
!!!COM: Anonim
!!!CDT: [?]
!!!OTL@@POL: Nasz Zbawiciel pan wszechmogacÿ
!!!TXO: Polish
!!!ODT:
!!!GTL: Hymnbook A
!!!ARL: Opactwo św. Wojciecha, Staniątki
!!!voices:	1
**kern	**text	**text	**text	**text	**text	**text	**text	**text	**text
*I[Canto]	*	*	*	*	*	*	*	*	*
*clefG3	*	*	*	*	*	*	*	*	*
*k[b-]	*	*	*	*	*	*	*	*	*
*M2/1-	*	*	*	*	*	*	*	*	*
=1-	=1-	=1-	=1-	=1-	=1-	=1-	=1-	=1-	=1-
!!LO:TX:Y=0:t=meter missing, noted on six lines
1dd	Naß	Wiel-	Sta-	Gdÿ	Rӡek-	Cie-	Podӡ-	Je-	α-
2.cc/	ӡba-	-ko-	-pieł	roӡ-	-lÿ	-bie	-cieß	-ӡu	.
4b-/	.	.	.	.	.	.	.	.	-men
=2-	=2-	=2-	=2-	=2-	=2-	=2-	=2-	=2-	=2-
2a/	-wi-	-noc-	na	-dӡie-	du-	daw-	se	Chriʃ-	α-
2g	-ciel	-ne	prʓed	-lił.	.	.	.	.	-men
1f	pan	wtÿ	.	du-	-ße	-no	mną	-te	kie-
=3-	=3-	=3-	=3-	=3-	=3-	=3-	=3-	=3-	=3-
2.a/	wße-	wie-	pie-	-ʃӡę	wi-	W_ciem-	mί-	wcie-	Je-
4b-/	.	.	.	.	.	.	.	.	.
2cc	-chmo-	-lieb-	-klie	sclo-	-taÿ	-noʃ-	.	-dÿ-	-ʓu
2.dd	.	-ne	wiel-	.	Żą-	.	-los-	prӡÿ-	Chriʃ-
=4-	=4-	=4-	=4-	=4-	=4-	=4-	=4-	=4-	=4-
.	.	.	.	.	.	.	.	.	.
4ee	.	.	.	.	.	ciach	.	.	.
2ff	-ga-	swie-	-ki	-wie-	-da-	cӡe-	-ni-	-dӡieß	-te
1dd	.	.	pią-	-cen-	-ia-	-ka-	-cÿ	sa-	mi-
=5-	=5-	=5-	=5-	=5-	=5-	=5-	=5-	=5-	=5-
0cc	-cÿ	-ta	-tek	-stwem	-cÿ	-mÿ	möÿ	-dӡic	-lÿ
=6-	=6-	=6-	=6-	=6-	=6-	=6-	=6-	=6-	=6-
2.dd	Je-	ӡwią-	i	ӡlą-	ӡba-	po-	iuß	nie-	ta-
4ee	-ʃus	.	.	.	-wi-	.	.	.	.
2ff	Chriʃ-	-ӡał	od-	-cӡÿ-	-cie-	-glą-	prӡe-	-daÿ-	-ko
2dd/	-tus-	.	-da-	-wßÿ	-liu	-da-	.	-ӡe	.
=7-	=7-	=7-	=7-	=7-	=7-	=7-	=7-	=7-	=7-
1ee	Na-	Pan	-lił	sie	Bo-	-iac	-ciw	na-	Bog
1a	-ӡa-	Bog	od	du-	.	plac-	wąm	-sÿm	bÿs-
=8-	=8-	=8-	=8-	=8-	=8-	=8-	=8-	=8-	=8-
1g	-ran-	Pie-	swÿch	-ßa	-że	-li-	ӡa-	du-	-mÿ
2g/	-ʃki	-kiel-	swię-	ӡ_bos-	wsӡech-	-wie	-den	-ßom	sto-
2.a	w_Troÿ-	-ne	.	.	-mo-	wo-	wrog	ʓa-	-bą
=9-	=9-	=9-	=9-	=9-	=9-	=9-	=9-	=9-	=9-
.	.	.	.	.	.	.	.	.	bÿ-
4g/	.	Xia-	-tÿch	.	.	.	.	.	-lÿ
2f	cÿ	-ӡe-	smu-	.	-ga-	-lą-	nie-	-bla-	.
1e	.	-ta	tek	.	-cÿ	-mÿ	-stoi	-dӡic	.
=10-	=10-	=10-	=10-	=10-	=10-	=10-	=10-	=10-	=10-
0a	wieÿ[?]	ÿ[?]	ʃpel-	-twem	ӡa-	po[?]-	-bo-	[?]	cie-
!!LO:LB:g=original
=11-	=11-	=11-	=11-	=11-	=11-	=11-	=11-	=11-	=11-
2e	ӡmar-	ich	nil	na-	kwit-	wi-	-scie	ʓlu-	-bie
2d	-twÿch	wßÿʃ-	pro-	-wie-	-leß	-taÿ-	.	-to-	chwa-
1c	ni-	-tke	-roc-	-dӡi	ni-	-ӡe	wÿ	-wa-	-li-
=12-	=12-	=12-	=12-	=12-	=12-	=12-	=12-	=12-	=12-
0d	nie	moc	-two	-ła	-nie	knąm	moi	-nie	-li
=13-	=13-	=13-	=13-	=13-	=13-	=13-	=13-	=13-	=13-
2.f	ν	nie	gdÿ	a	na-	boʃ-	wiedӡ-	nie	na
4g/	.	.	.	.	.	.	.	.	.
4a/	.	.	.	swe	-wie-	tÿ	-cieß	daÿ	wiek
4b-	we-	mo-	cier-	mi-	.	.	.	.	.
2cc	-se-	-glac-	-pia-	-łos-	-dӡi-	roӡ-	o	naß	wie-
=14-	=14-	=14-	=14-	=14-	=14-	=14-	=14-	=14-	=14-
1b-	.	.	-lo	-ni-	-leß	-liał	.	.	.
1a	-lίl	ÿm	ie-	-ki	swe	swo-	tÿm	na	-kom
=15-	=15-	=15-	=15-	=15-	=15-	=15-	=15-	=15-	=15-
2.cc/	luc-	ӡad-	-go	ν-	do-	-ie	iß	wiec-	sto-
4b-/	.	.	.	.	.	.	sie	.	-bam
2cc	-kie	-na	clo-	.	-bre	krew	.	-ne	kro-
1a	po-	chÿ-	-wię-	-cie-	stwo-	.	mnie	ӡa-	-lo-
=16-	=16-	=16-	=16-	=16-	=16-	=16-	=16-	=16-	=16-
.	.	.	.	.	.	.	.	.	.
2dd	-ko-	-traʃc	.	.	-rӡe-	ӡa	cӡart	-trą-	-wa-
1cc	-le-	po-	-cen-	-ßÿ-	.	naß	-nie	-ce-	-li-
=17-	=17-	=17-	=17-	=17-	=17-	=17-	=17-	=17-	=17-
!!LO:N:vis=00
0dd;	nie	-moc	-ʃtwo	-ła	-nie	sąm	boi	-li	αmen
==	=	=	=	=	=	=	=	=	=
*-	*-	*-	*-	*-	*-	*-	*-	*-	*-
!!title: @{OTL}, @{GTL}: @{pag}, ed. @{ENC}
!!!pag: p. 4v
!!!GTL: Hymnbook A
!!!EFL:
!!!YEM: Creative Commons CC/BY/NC/SA 4.0
!!!ENC: Marcin Konik
!!!END: 2015-04
!!!EED: Marcin Konik
!!!EEV:
!!!ONB: Encoded in vim by Marcin Konik
!!!CharacterEncoding: utf-8
!!!RDF**kern: l=long note in original notation
!!!RDF**kern: i=editorial accidental
!!muse2ps: z14jc180F
